archdroid-icon-theme/Archdroid-Brown/apps/scalable/system-file-manager-linux-mint.svg

<svg fill="#795548" height="48" viewBox="0 0 48 48" width="48" xmlns="http://www.w3.org/2000/svg"><path d="m20 5-4 4v4h-8c-2.21 0-3.980469 1.79-3.980469 4l-.019531 22c0 2.21 1.79 4 4 4h32c2.21 0 4-1.79 4-4v-22c0-2.21-1.79-4-4-4h-8v-4l-4-4zm0 4h8v4h-8zm-5.625 11.75 9.916016.046875 3.101562.005859c3.712075 0 6.927735 2.808833 6.927735 6.517579v11.310546h-10.66211c-3.708742 0-6.927734-2.812159-6.927734-6.517578l-.003906-4.5v-1.146484h-2.351563zm1.515625 1.521484v2.683594h.939453c.638688 0 1.408203.601647 1.408203 1.482422l.00586 5.671875c0 2.764863 2.425728 5.005859 5.414062 5.005859h7.376953c.945888 0 1.773438-.598925 1.773438-1.519531v-8.27539c0-2.764862-2.424343-5.00586-5.416016-5.00586h-3.105469v-.007812zm3.802734 1.681641h1.541016v7.916016c0 1.058879.723789 1.882812 1.570313 1.882812l5.261718.019531c1.096961 0 1.951172-.755732 1.951172-1.652343l-.009765-4.203125c0-.272763-.08845-.48491-.283204-.681641-.195389-.19736-.403211-.287109-.671875-.287109-.274297 0-.478009.0893-.673828.287109-.194756.196731-.283203.408878-.283203.681641v3.597656h-1.630859v-3.597656c0-.272763-.090402-.48491-.285156-.681641-.195821-.197809-.399537-.287109-.673829-.287109-.268662 0-.474528.089749-.669921.287109-.194753.196731-.285157.408878-.285157.681641v3.597656h-1.630859v-3.597656c-.000002-.711645.263628-1.342546.763672-1.847657.500292-.50538 1.121495-.765625 1.822265-.765625.687579 0 1.286221.257003 1.771485.72461.486687-.468379 1.087528-.72461 1.77539-.72461.700768 0 1.323932.260245 1.824219.765625.50005.505111.763672 1.136012.763672 1.847657l.005859 4.490234c-.077095.75183-.394849 1.419035-.9375 1.976563h-.003906c-.638045.649569-1.4279.984375-2.328125.984375h-5.859375c-.717006-.07668-1.354136-.415691-1.884765-.939454-.62082-.618417-.939454-1.383764-.939454-2.255859z" fill="#795548"/></svg>

<svg fill="#795548" height="48" version="1.1" viewBox="0 0 48 48" width="48" xmlns="http://www.w3.org/2000/svg"><path d="M20 5L16 9 16 13 8 13C5.79 13 4.019531 14.79 4.019531 17L4 39C4 41.21 5.79 43 8 43L40 43C42.21 43 44 41.21 44 39L44 17C44 14.79 42.21 13 40 13L32 13 32 9 28 5 20 5zM20 9L28 9 28 13 20 13 20 9zM14.375 20.75L24.291016 20.796875 27.392578 20.802734C31.104653 20.802734 34.320313 23.611567 34.320313 27.320313L34.320313 38.630859 23.658203 38.630859C19.949461 38.630859 16.730469 35.8187 16.730469 32.113281L16.726563 27.613281 16.726563 26.466797 14.375 26.466797 14.375 20.75zM15.890625 22.271484L15.890625 24.955078 16.830078 24.955078C17.468766 24.955078 18.238281 25.556725 18.238281 26.4375L18.244141 32.109375C18.244141 34.874238 20.669869 37.115234 23.658203 37.115234L31.035156 37.115234C31.981044 37.115234 32.808594 36.516309 32.808594 35.595703L32.808594 27.320313C32.808594 24.555451 30.384251 22.314453 27.392578 22.314453L24.287109 22.314453 24.287109 22.306641 15.890625 22.271484zM19.693359 23.953125L21.234375 23.953125 21.234375 31.869141C21.234375 32.92802 21.958164 33.751953 22.804688 33.751953L28.066406 33.771484C29.163367 33.771484 30.017578 33.015752 30.017578 32.119141L30.007813 27.916016C30.007813 27.643253 29.919363 27.431106 29.724609 27.234375 29.52922 27.037015 29.321398 26.947266 29.052734 26.947266 28.778437 26.947266 28.574725 27.036566 28.378906 27.234375 28.18415 27.431106 28.095703 27.643253 28.095703 27.916016L28.095703 31.513672 26.464844 31.513672 26.464844 27.916016C26.464844 27.643253 26.374442 27.431106 26.179688 27.234375 25.983867 27.036566 25.780151 26.947266 25.505859 26.947266 25.237197 26.947266 25.031331 27.037015 24.835938 27.234375 24.641185 27.431106 24.550781 27.643253 24.550781 27.916016L24.550781 31.513672 22.919922 31.513672 22.919922 27.916016C22.91992 27.204371 23.18355 26.57347 23.683594 26.068359 24.183886 25.562979 24.805089 25.302734 25.505859 25.302734 26.193438 25.302734 26.79208 25.559737 27.277344 26.027344 27.764031 25.558965 28.364872 25.302734 29.052734 25.302734 29.753502 25.302734 30.376666 25.562979 30.876953 26.068359 31.377003 26.57347 31.640625 27.204371 31.640625 27.916016L31.646484 32.40625C31.569389 33.15808 31.251635 33.825285 30.708984 34.382813L30.705078 34.382813C30.067033 35.032382 29.277178 35.367188 28.376953 35.367188L22.517578 35.367188C21.800572 35.290508 21.163442 34.951497 20.632813 34.427734 20.011993 33.809317 19.693359 33.04397 19.693359 32.171875L19.693359 23.953125z"/></svg>
